X: 1
T: Dance Ti' Thy Daddy
M: 3/2
L: 1/8
R: three-two
K: Dmaj
|:dd dB AF|Ee ed cA|dd dB AF|Dd dc d2:|
|:f2 fe fa|e2 ed ce|f2 fe fa|Ad dc d2:|
